X:121
T:Mill Pond Reel
R:reel
C:Bruce Osborne - Feb. 2003
Z:abc by bosborne@kos.net
M:2/4
L:1/8
K:Bb
d/c/|B/c/B/F/ D/F/B/F/|D/F/B/F/ d/F/B/F/|A/F/A/c/ e/c/A/c/|B/A/B/c/ dd/c/|\
B/c/B/F/ D/F/B/F/|D/F/B/F/ d/F/B/F/|A/F/A/c/ e/c/A/c/|B/A/B/c/ B:|
|:d|f/B/A/B/ F/B/A/B/|f/B/g/B/ fc/d/|e/c/=B/c/ F/c/=B/c/|d/B/B/A/ Bd|\
f/B/A/B/ F/B/A/B/|f/B/g/B/ fc/d/|e/c/=B/c/ F/c/=B/c/|d/B/B/A/ B:|
